X: 5448
T: Bunch Of Green Rushes, The
R: reel
M: 4/4
K: Dmajor
d|cAGA G/F/E FG|cAGB Adde|cAGA FEFg|fdec Adde|
cAGA G/F/E FG|cAGB Adde|cAGA FEFg|fdec AddA||
defg abaf|gece gage|defg abaf|gece fd A/B/c|
defg bafd|cdef g2 fg|afge fdec|dcAG Add||

